dist/img/home/finance_ebitda.svg

<svg width="35" height="35" viewBox="0 0 35 35" fill="none" xmlns="http://www.w3.org/2000/svg">
<path d="M24.0625 13.854L17.9375 19.979L15.6042 16.479L10.9375 21.1457" stroke="black" stroke-width="1.5" stroke-linecap="round" stroke-linejoin="round"/>
<path d="M21.146 13.854H24.0627V16.7707" stroke="black" stroke-width="1.5" stroke-linecap="round" stroke-linejoin="round"/>
<path d="M13.1248 32.0832H21.8748C29.1665 32.0832 32.0832 29.1665 32.0832 21.8748V13.1248C32.0832 5.83317 29.1665 2.9165 21.8748 2.9165H13.1248C5.83317 2.9165 2.9165 5.83317 2.9165 13.1248V21.8748C2.9165 29.1665 5.83317 32.0832 13.1248 32.0832Z" stroke="black" stroke-width="1.5" stroke-linecap="round" stroke-linejoin="round"/>
</svg>

<svg width="35" height="35" viewBox="0 0 35 35" fill="none" xmlns="http://www.w3.org/2000/svg"><path d="M24.063 13.854l-6.125 6.125-2.334-3.5-4.666 4.667" stroke="#000" stroke-width="1.5" stroke-linecap="round" stroke-linejoin="round"/><path d="M21.146 13.854h2.917v2.917" stroke="#000" stroke-width="1.5" stroke-linecap="round" stroke-linejoin="round"/><path d="M13.125 32.083h8.75c7.291 0 10.208-2.916 10.208-10.208v-8.75c0-7.292-2.916-10.209-10.208-10.209h-8.75c-7.292 0-10.209 2.917-10.209 10.209v8.75c0 7.291 2.917 10.208 10.209 10.208z" stroke="#000" stroke-width="1.5" stroke-linecap="round" stroke-linejoin="round"/></svg>
